X: 1307
T: Kürdîlihicazkâr Seyir
C: Şefik Gürmeriç
O: Turkey
F: http://compmusic.upf.edu/node/140
N: kurdilihicazkar--seyir--sofyan--2--sefik_gurmeric
N: makam= kurdilihicazkar
N: form= seyir
N: usul= sofyan = 4/4
M: 4/4
L: 1/16
K: C _B _e _A 
Q: 1/4=60
%%MIDI tuningsystem comma53
f4 g4 g4 =a4  | b3=a agg^f g8  | ^f2g2 =a2b2 a2g2 g2f2  | \
w:   |   |   | 
^f3_7/8e feed d4 cd_2/4e=f  | 
w:   | 
g4 f2g2 g4 g2f2  | f2a2 g2f2 feed e4  | \
w:   |   | 
z4 d2e2 f2a2 g2f2  | 
w:   | 
f3e feed d8  | z4 d2e2 c4 g4  | f2a2 g2f2 e2d2 c2B2  | \
w:   |   |   | 
c2e2 d2c2 B2A2 G2F2  | 
w:   | 
c6B2 cedc c4  | z4 B2c2 d2e2 d2c2  | \
w:   |   | 
gfed c2d2 B2A2 G2F2  | 
w:   | 
G2ed c2cB B3A BAAG  | G16  | |


